;FLAVOR:Marlin
;TIME:1004
;Filament used: 0.532523m
;Layer height: 0.2
;MINX:97.2
;MINY:94.95
;MINZ:0.2
;MAXX:122.8
;MAXY:125.05
;MAXZ:14.8
;Generated with Cura_SteamEngine 4.10.0
M140 S80
M105
M190 S80
M104 S245
M105
M109 S245
M82 ;absolute extrusion mode
; Ender 3 Custom Start G-code
G92 E0 ; Reset Extruder
G28 ; Home all axes
G1 Z2.0 F3000 ; Move Z Axis up little to prevent scratching of Heat Bed
G1 X0.1 Y20 Z0.3 F5000.0 ; Move to start position
G1 X0.1 Y200.0 Z0.3 F1500.0 E15 ; Draw the first line
G1 X0.4 Y200.0 Z0.3 F5000.0 ; Move to side a little
G1 X0.4 Y20 Z0.3 F1500.0 E30 ; Draw the second line
G92 E0 ; Reset Extruder
G1 Z2.0 F3000 ; Move Z Axis up little to prevent scratching of Heat Bed
G1 X5 Y20 Z0.3 F5000.0 ; Move over to prevent blob squish
G92 E0
G92 E0
G1 F1200 E-3
;LAYER_COUNT:75
;LAYER:0
M107
G0 F6000 X99.485 Y97.352 Z0.2
;TYPE:SKIRT
G1 F1200 E0
G1 F900 X99.602 Y97.235 E0.0055
G1 X100.188 Y96.705 E0.03178
G1 X100.824 Y96.238 E0.05803
G1 X101.504 Y95.837 E0.08428
G1 X102.222 Y95.507 E0.11057
G1 X102.969 Y95.252 E0.13682
G1 X103.738 Y95.073 E0.16308
G1 X104.522 Y94.973 E0.18937
G1 X105.117 Y94.95 E0.20917
G1 X114.883 Y94.95 E0.53399
G1 X115.672 Y94.99 E0.56027
G1 X116.452 Y95.109 E0.58651
G1 X117.217 Y95.307 E0.61279
G1 X117.957 Y95.581 E0.63904
G1 X118.666 Y95.929 E0.66531
G1 X119.337 Y96.347 E0.6916
G1 X119.961 Y96.83 E0.71784
G1 X120.398 Y97.235 E0.73766
G1 X120.515 Y97.352 E0.74316
G1 X121.045 Y97.938 E0.76944
G1 X121.512 Y98.574 E0.79569
G1 X121.913 Y99.254 E0.82194
G1 X122.243 Y99.972 E0.84823
G1 X122.498 Y100.719 E0.87448
G1 X122.677 Y101.488 E0.90074
G1 X122.777 Y102.272 E0.92703
G1 X122.8 Y102.867 E0.94683
G1 X122.8 Y117.133 E1.42132
G1 X122.76 Y117.922 E1.4476
G1 X122.641 Y118.702 E1.47384
G1 X122.443 Y119.467 E1.50012
G1 X122.169 Y120.207 E1.52637
G1 X121.821 Y120.916 E1.55264
G1 X121.403 Y121.587 E1.57893
G1 X120.92 Y122.211 E1.60518
G1 X120.515 Y122.648 E1.62499
G1 X120.398 Y122.765 E1.6305
G1 X119.812 Y123.295 E1.65678
G1 X119.176 Y123.762 E1.68302
G1 X118.496 Y124.163 E1.70928
G1 X117.778 Y124.493 E1.73556
G1 X117.031 Y124.748 E1.76181
G1 X116.262 Y124.927 E1.78807
G1 X115.478 Y125.027 E1.81436
G1 X114.883 Y125.05 E1.83416
G1 X105.117 Y125.05 E2.15898
G1 X104.328 Y125.01 E2.18526
G1 X103.548 Y124.891 E2.2115
G1 X102.783 Y124.693 E2.23778
G1 X102.043 Y124.419 E2.26403
G1 X101.334 Y124.071 E2.2903
G1 X100.663 Y123.653 E2.31659
G1 X100.039 Y123.17 E2.34284
G1 X99.602 Y122.765 E2.36265
G1 X99.485 Y122.648 E2.36816
G1 X98.955 Y122.062 E2.39444
G1 X98.488 Y121.426 E2.42068
G1 X98.087 Y120.746 E2.44694
G1 X97.757 Y120.028 E2.47322
G1 X97.502 Y119.281 E2.49947
G1 X97.323 Y118.512 E2.52573
G1 X97.223 Y117.728 E2.55202
G1 X97.2 Y117.133 E2.57183
G1 X97.2 Y102.867 E3.04631
G1 X97.24 Y102.078 E3.07259
G1 X97.359 Y101.298 E3.09883
G1 X97.557 Y100.533 E3.12512
G1 X97.831 Y99.793 E3.15136
G1 X98.179 Y99.084 E3.17763
G1 X98.597 Y98.413 E3.20392
G1 X99.08 Y97.789 E3.23017
G1 X99.485 Y97.352 E3.24999
G0 F6000 X99.767 Y97.634
G1 F900 X99.884 Y97.517 E3.25549
G1 X100.456 Y97.003 E3.28107
G1 X101.078 Y96.55 E3.30666
G1 X101.743 Y96.164 E3.33223
G1 X102.445 Y95.849 E3.35783
G1 X103.176 Y95.609 E3.38342
G1 X103.927 Y95.446 E3.40898
G1 X104.692 Y95.362 E3.43457
G1 X105.117 Y95.35 E3.44871
G1 X114.883 Y95.35 E3.77353
G1 X115.651 Y95.39 E3.79911
G1 X116.411 Y95.509 E3.8247
G1 X117.154 Y95.707 E3.85027
G1 X117.873 Y95.981 E3.87586
G1 X118.559 Y96.328 E3.90143
G1 X119.206 Y96.744 E3.92702
G1 X119.806 Y97.225 E3.95259
G1 X120.116 Y97.517 E3.96676
G1 X120.233 Y97.634 E3.97226
G1 X120.747 Y98.206 E3.99784
G1 X121.2 Y98.828 E4.02343
G1 X121.586 Y99.493 E4.049
G1 X121.901 Y100.195 E4.0746
G1 X122.141 Y100.926 E4.10019
G1 X122.304 Y101.677 E4.12575
G1 X122.388 Y102.442 E4.15134
G1 X122.4 Y102.867 E4.16548
G1 X122.4 Y117.133 E4.63997
G1 X122.36 Y117.901 E4.66555
G1 X122.241 Y118.661 E4.69114
G1 X122.043 Y119.404 E4.71671
G1 X121.769 Y120.123 E4.7423
G1 X121.422 Y120.809 E4.76787
G1 X121.006 Y121.456 E4.79346
G1 X120.525 Y122.056 E4.81903
G1 X120.233 Y122.366 E4.8332
G1 X120.116 Y122.483 E4.8387
G1 X119.544 Y122.997 E4.86428
G1 X118.922 Y123.45 E4.88987
G1 X118.257 Y123.836 E4.91545
G1 X117.555 Y124.151 E4.94104
G1 X116.824 Y124.391 E4.96663
G1 X116.073 Y124.554 E4.99219
G1 X115.308 Y124.638 E5.01778
G1 X114.883 Y124.65 E5.03193
G1 X105.117 Y124.65 E5.35674
G1 X104.349 Y124.61 E5.38232
G1 X103.589 Y124.491 E5.40791
G1 X102.846 Y124.293 E5.43348
G1 X102.127 Y124.019 E5.45907
G1 X101.441 Y123.672 E5.48464
G1 X100.794 Y123.256 E5.51023
G1 X100.194 Y122.775 E5.5358
G1 X99.884 Y122.483 E5.54997
G1 X99.767 Y122.366 E5.55547
G1 X99.253 Y121.794 E5.58105
G1 X98.8 Y121.172 E5.60664
G1 X98.414 Y120.507 E5.63222
G1 X98.099 Y119.805 E5.65781
G1 X97.859 Y119.074 E5.6834
G1 X97.696 Y118.323 E5.70896
G1 X97.612 Y117.558 E5.73455
G1 X97.6 Y117.133 E5.7487
G1 X97.6 Y102.867 E6.22318
G1 X97.64 Y102.099 E6.24876
G1 X97.759 Y101.339 E6.27435
G1 X97.957 Y100.596 E6.29992
G1 X98.231 Y99.877 E6.32552
G1 X98.578 Y99.191 E6.35108
G1 X98.994 Y98.544 E6.37667
G1 X99.475 Y97.944 E6.40225
G1 X99.767 Y97.634 E6.41641
G0 F6000 X100.05 Y97.917
G1 F900 X100.167 Y97.8 E6.42191
G1 X100.724 Y97.3 E6.44681
G1 X101.33 Y96.863 E6.47166
G1 X101.98 Y96.492 E6.49655
G1 X102.666 Y96.193 E6.52144
G1 X103.38 Y95.969 E6.54633
G1 X104.113 Y95.822 E6.57119
G1 X105.117 Y95.75 E6.60467
G1 X114.883 Y95.75 E6.92949
G1 X115.63 Y95.79 E6.95437
G1 X116.368 Y95.909 E6.97924
G1 X117.09 Y96.107 E7.00414
G1 X117.786 Y96.38 E7.029
G1 X118.449 Y96.727 E7.05389
G1 X119.072 Y97.142 E7.07879
G1 X119.833 Y97.8 E7.11225
G1 X119.95 Y97.917 E7.11775
G1 X120.45 Y98.474 E7.14265
G1 X120.887 Y99.08 E7.1675
G1 X121.258 Y99.73 E7.19239
G1 X121.557 Y100.416 E7.21728
G1 X121.781 Y101.13 E7.24217
G1 X121.928 Y101.863 E7.26703
G1 X122 Y102.867 E7.30051
G1 X122 Y117.133 E7.775
G1 X121.96 Y117.88 E7.79988
G1 X121.841 Y118.618 E7.82475
G1 X121.643 Y119.34 E7.84965
G1 X121.37 Y120.036 E7.87451
G1 X121.023 Y120.699 E7.8994
G1 X120.608 Y121.322 E7.9243
G1 X119.95 Y122.083 E7.95776
G1 X119.833 Y122.2 E7.96326
G1 X119.276 Y122.7 E7.98816
G1 X118.67 Y123.137 E8.01301
G1 X118.02 Y123.508 E8.0379
G1 X117.334 Y123.807 E8.06279
G1 X116.62 Y124.031 E8.08768
G1 X115.887 Y124.178 E8.11254
G1 X114.883 Y124.25 E8.14602
G1 X105.117 Y124.25 E8.47084
G1 X104.37 Y124.21 E8.49572
G1 X103.632 Y124.091 E8.52059
G1 X102.91 Y123.893 E8.54549
G1 X102.214 Y123.62 E8.57035
G1 X101.551 Y123.273 E8.59524
G1 X100.928 Y122.858 E8.62014
G1 X100.167 Y122.2 E8.6536
G1 X100.05 Y122.083 E8.6591
G1 X99.55 Y121.526 E8.684
G1 X99.113 Y120.92 E8.70885
G1 X98.742 Y120.27 E8.73374
G1 X98.443 Y119.584 E8.75863
G1 X98.219 Y118.87 E8.78352
G1 X98.072 Y118.137 E8.80838
G1 X98 Y117.133 E8.84186
G1 X98 Y102.867 E9.31635
G1 X98.04 Y102.12 E9.34123
G1 X98.159 Y101.382 E9.3661
G1 X98.357 Y100.66 E9.391
G1 X98.63 Y99.964 E9.41586
G1 X98.977 Y99.301 E9.44075
G1 X99.392 Y98.678 E9.46565
G1 X100.05 Y97.917 E9.49911
G0 F6000 X100.333 Y98.2
G1 F900 X100.45 Y98.083 E9.50461
G1 X100.991 Y97.599 E9.52876
G1 X101.582 Y97.176 E9.55293
G1 X102.216 Y96.822 E9.57708
G1 X102.885 Y96.539 E9.60124
G1 X103.581 Y96.331 E9.6254
G1 X104.296 Y96.201 E9.64957
G1 X105.117 Y96.15 E9.67693
G1 X114.883 Y96.15 E10.00175
G1 X115.608 Y96.19 E10.0259
G1 X116.325 Y96.309 E10.05007
G1 X117.024 Y96.507 E10.07424
G1 X117.697 Y96.78 E10.09839
G1 X118.336 Y97.125 E10.12255
G1 X118.933 Y97.539 E10.14671
G1 X119.55 Y98.083 E10.17407
G1 X119.667 Y98.2 E10.17957
G1 X120.151 Y98.741 E10.20372
G1 X120.574 Y99.332 E10.22789
G1 X120.928 Y99.966 E10.25204
G1 X121.211 Y100.635 E10.2762
G1 X121.419 Y101.331 E10.30036
G1 X121.549 Y102.046 E10.32453
G1 X121.6 Y102.867 E10.35189
G1 X121.6 Y117.133 E10.82638
G1 X121.56 Y117.858 E10.85053
G1 X121.441 Y118.575 E10.8747
G1 X121.243 Y119.274 E10.89887
G1 X120.97 Y119.947 E10.92302
G1 X120.625 Y120.586 E10.94718
G1 X120.211 Y121.183 E10.97134
G1 X119.667 Y121.8 E10.9987
G1 X119.55 Y121.917 E11.0042
G1 X119.009 Y122.401 E11.02835
G1 X118.418 Y122.824 E11.05252
G1 X117.784 Y123.178 E11.07667
G1 X117.115 Y123.461 E11.10083
G1 X116.419 Y123.669 E11.12499
G1 X115.704 Y123.799 E11.14916
G1 X114.883 Y123.85 E11.17652
G1 X105.117 Y123.85 E11.50134
G1 X104.392 Y123.81 E11.52549
G1 X103.675 Y123.691 E11.54966
G1 X102.976 Y123.493 E11.57383
G1 X102.303 Y123.22 E11.59798
G1 X101.664 Y122.875 E11.62213
G1 X101.067 Y122.461 E11.6463
G1 X100.45 Y121.917 E11.67366
G1 X100.333 Y121.8 E11.67916
G1 X99.849 Y121.259 E11.7033
G1 X99.426 Y120.668 E11.72748
G1 X99.072 Y120.034 E11.75163
G1 X98.789 Y119.365 E11.77579
G1 X98.581 Y118.669 E11.79995
G1 X98.451 Y117.954 E11.82412
G1 X98.4 Y117.133 E11.85148
G1 X98.4 Y102.867 E12.32597
G1 X98.44 Y102.142 E12.35012
G1 X98.559 Y101.425 E12.37429
G1 X98.757 Y100.726 E12.39846
G1 X99.03 Y100.053 E12.42261
G1 X99.375 Y99.414 E12.44676
G1 X99.789 Y98.817 E12.47093
G1 X100.333 Y98.2 E12.49829
G0 F6000 X100.616 Y98.483
G1 F900 X100.733 Y98.366 E12.50379
G1 X101.258 Y97.897 E12.5272
G1 X101.833 Y97.491 E12.55062
G1 X102.451 Y97.153 E12.57404
G1 X103.102 Y96.886 E12.59745
G1 X103.78 Y96.696 E12.62087
G1 X104.475 Y96.583 E12.64429
G1 X105.117 Y96.55 E12.66567
G1 X114.883 Y96.55 E12.99048
G1 X115.586 Y96.59 E13.0139
G1 X116.28 Y96.709 E13.03732
G1 X116.955 Y96.907 E13.06072
G1 X117.604 Y97.179 E13.08413
G1 X118.218 Y97.524 E13.10755
G1 X118.789 Y97.935 E13.13095
G1 X119.267 Y98.366 E13.15236
G1 X119.384 Y98.483 E13.15786
G1 X119.853 Y99.008 E13.18127
G1 X120.259 Y99.583 E13.20469
G1 X120.597 Y100.201 E13.22811
G1 X120.864 Y100.852 E13.25152
G1 X121.054 Y101.53 E13.27494
G1 X121.167 Y102.225 E13.29836
G1 X121.2 Y102.867 E13.31974
G1 X121.2 Y117.133 E13.79423
G1 X121.16 Y117.836 E13.81765
G1 X121.041 Y118.53 E13.84106
G1 X120.843 Y119.205 E13.86446
G1 X120.571 Y119.854 E13.88787
G1 X120.226 Y120.468 E13.91129
G1 X119.815 Y121.039 E13.93469
G1 X119.384 Y121.517 E13.9561
G1 X119.267 Y121.634 E13.9616
G1 X118.742 Y122.103 E13.98502
G1 X118.167 Y122.509 E14.00843
G1 X117.549 Y122.847 E14.03185
G1 X116.898 Y123.114 E14.05526
G1 X116.22 Y123.304 E14.07868
G1 X115.525 Y123.417 E14.1021
G1 X114.883 Y123.45 E14.12348
G1 X105.117 Y123.45 E14.4483
G1 X104.414 Y123.41 E14.47172
G1 X103.72 Y123.291 E14.49513
G1 X103.045 Y123.093 E14.51853
G1 X102.396 Y122.821 E14.54194
G1 X101.782 Y122.476 E14.56536
G1 X101.211 Y122.065 E14.58876
G1 X100.733 Y121.634 E14.61017
G1 X100.616 Y121.517 E14.61567
G1 X100.147 Y120.992 E14.63909
G1 X99.741 Y120.417 E14.6625
G1 X99.403 Y119.799 E14.68592
G1 X99.136 Y119.148 E14.70933
G1 X98.946 Y118.47 E14.73275
G1 X98.833 Y117.775 E14.75617
G1 X98.8 Y117.133 E14.77755
G1 X98.8 Y102.867 E15.25204
G1 X98.84 Y102.164 E15.27546
G1 X98.959 Y101.47 E15.29888
G1 X99.157 Y100.795 E15.32227
G1 X99.429 Y100.146 E15.34568
G1 X99.774 Y99.532 E15.3691
G1 X100.185 Y98.961 E15.3925
G1 X100.616 Y98.483 E15.41391
G0 F6000 X100.899 Y98.766
G1 F900 X101.016 Y98.649 E15.41941
G1 X101.525 Y98.196 E15.44207
G1 X102.083 Y97.807 E15.4647
G1 X102.683 Y97.485 E15.48735
G1 X103.317 Y97.236 E15.51
G1 X103.976 Y97.063 E15.53266
G1 X104.65 Y96.969 E15.5553
G1 X105.117 Y96.95 E15.57084
G1 X114.883 Y96.95 E15.89566
G1 X115.563 Y96.99 E15.91832
G1 X116.233 Y97.109 E15.94095
G1 X116.885 Y97.306 E15.9636
G1 X117.509 Y97.578 E15.98624
G1 X118.097 Y97.922 E16.0089
G1 X118.641 Y98.332 E16.03156
G1 X118.984 Y98.649 E16.04709
G1 X119.101 Y98.766 E16.0526
G1 X119.554 Y99.275 E16.07526
G1 X119.943 Y99.833 E16.09788
G1 X120.265 Y100.433 E16.12053
G1 X120.514 Y101.067 E16.14319
G1 X120.687 Y101.726 E16.16585
G1 X120.781 Y102.4 E16.18848
G1 X120.8 Y102.867 E16.20403
G1 X120.8 Y117.133 E16.67852
G1 X120.76 Y117.813 E16.70117
G1 X120.641 Y118.483 E16.72381
G1 X120.444 Y119.135 E16.74646
G1 X120.172 Y119.759 E16.7691
G1 X119.828 Y120.347 E16.79176
G1 X119.418 Y120.891 E16.81441
G1 X119.101 Y121.234 E16.82995
G1 X118.984 Y121.351 E16.83545
G1 X118.475 Y121.804 E16.85812
G1 X117.917 Y122.193 E16.88074
G1 X117.317 Y122.515 E16.90339
G1 X116.683 Y122.764 E16.92604
G1 X116.024 Y122.937 E16.9487
G1 X115.35 Y123.031 E16.97134
G1 X114.883 Y123.05 E16.98688
G1 X105.117 Y123.05 E17.3117
G1 X104.437 Y123.01 E17.33436
G1 X103.767 Y122.891 E17.35699
G1 X103.115 Y122.694 E17.37964
G1 X102.491 Y122.422 E17.40228
G1 X101.903 Y122.078 E17.42494
G1 X101.359 Y121.668 E17.4476
G1 X101.016 Y121.351 E17.46313
G1 X100.899 Y121.234 E17.46864
G1 X100.446 Y120.725 E17.4913
G1 X100.057 Y120.167 E17.51392
G1 X99.735 Y119.567 E17.53657
G1 X99.486 Y118.933 E17.55923
G1 X99.313 Y118.274 E17.58189
G1 X99.219 Y117.6 E17.60452
G1 X99.2 Y117.133 E17.62007
G1 X99.2 Y102.867 E18.09456
G1 X99.24 Y102.187 E18.11721
G1 X99.359 Y101.517 E18.13985
G1 X99.556 Y100.865 E18.1625
G1 X99.828 Y100.241 E18.18514
G1 X100.172 Y99.653 E18.2078
G1 X100.582 Y99.109 E18.23045
G1 X100.899 Y98.766 E18.24599
G0 F6000 X101.182 Y99.049
G1 F900 X101.299 Y98.932 E18.25149
G1 X101.791 Y98.496 E18.27336
G1 X102.332 Y98.124 E18.29519
G1 X102.914 Y97.82 E18.31703
G1 X103.529 Y97.589 E18.33888
G1 X104.168 Y97.434 E18.36075
G1 X105.117 Y97.35 E18.39244
G1 X114.883 Y97.35 E18.71726
G1 X115.539 Y97.39 E18.73912
G1 X116.185 Y97.509 E18.76097
G1 X116.812 Y97.706 E18.78283
G1 X117.41 Y97.978 E18.80468
G1 X117.971 Y98.32 E18.82653
G1 X118.701 Y98.932 E18.85821
G1 X118.818 Y99.049 E18.86372
G1 X119.254 Y99.541 E18.88558
G1 X119.626 Y100.082 E18.90742
G1 X119.93 Y100.664 E18.92926
G1 X120.161 Y101.279 E18.95111
G1 X120.316 Y101.918 E18.97298
G1 X120.4 Y102.867 E19.00466
G1 X120.4 Y117.133 E19.47915
G1 X120.36 Y117.789 E19.50101
G1 X120.241 Y118.435 E19.52286
G1 X120.044 Y119.062 E19.54472
G1 X119.772 Y119.66 E19.56657
G1 X119.43 Y120.221 E19.58842
G1 X118.818 Y120.951 E19.62011
G1 X118.701 Y121.068 E19.62561
G1 X118.209 Y121.504 E19.64747
G1 X117.668 Y121.876 E19.66931
G1 X117.086 Y122.18 E19.69115
G1 X116.471 Y122.411 E19.713
G1 X115.832 Y122.566 E19.73487
G1 X114.883 Y122.65 E19.76656
G1 X105.117 Y122.65 E20.09137
G1 X104.461 Y122.61 E20.11323
G1 X103.815 Y122.491 E20.13508
G1 X103.188 Y122.294 E20.15694
G1 X102.59 Y122.022 E20.17879
G1 X102.029 Y121.68 E20.20064
G1 X101.299 Y121.068 E20.23233
G1 X101.182 Y120.951 E20.23783
G1 X100.746 Y120.459 E20.2597
G1 X100.374 Y119.918 E20.28153
G1 X100.07 Y119.336 E20.30337
G1 X99.839 Y118.721 E20.32522
G1 X99.684 Y118.082 E20.34709
G1 X99.6 Y117.133 E20.37878
G1 X99.6 Y102.867 E20.85327
G1 X99.64 Y102.211 E20.87513
G1 X99.759 Y101.565 E20.89697
G1 X99.956 Y100.938 E20.91883
G1 X100.228 Y100.34 E20.94068
G1 X100.57 Y99.779 E20.96254
G1 X101.182 Y99.049 E20.99422
G0 F6000 X101.464 Y99.331
G1 F900 X101.581 Y99.214 E20.99972
G1 X102.056 Y98.797 E21.02075
G1 X102.579 Y98.442 E21.04177
G1 X103.143 Y98.156 E21.0628
G1 X103.738 Y97.944 E21.08381
G1 X104.356 Y97.808 E21.10486
G1 X105.117 Y97.75 E21.13024
G1 X114.883 Y97.75 E21.45506
G1 X115.514 Y97.79 E21.47609
G1 X116.135 Y97.909 E21.49712
G1 X116.735 Y98.106 E21.51813
G1 X117.307 Y98.377 E21.53918
G1 X117.839 Y98.717 E21.56018
G1 X118.419 Y99.214 E21.58558
G1 X118.536 Y99.331 E21.59108
G1 X118.953 Y99.806 E21.61211
G1 X119.308 Y100.329 E21.63313
G1 X119.594 Y100.893 E21.65416
G1 X119.806 Y101.488 E21.67517
G1 X119.942 Y102.106 E21.69622
G1 X120 Y102.867 E21.7216
G1 X120 Y117.133 E22.19609
G1 X119.96 Y117.764 E22.21712
G1 X119.841 Y118.385 E22.23815
G1 X119.644 Y118.985 E22.25916
G1 X119.373 Y119.557 E22.28021
G1 X119.033 Y120.089 E22.30121
G1 X118.536 Y120.669 E22.32661
G1 X118.419 Y120.786 E22.33212
G1 X117.944 Y121.203 E22.35314
G1 X117.421 Y121.558 E22.37416
G1 X116.857 Y121.844 E22.39519
G1 X116.262 Y122.056 E22.4162
G1 X115.644 Y122.192 E22.43725
G1 X114.883 Y122.25 E22.46263
G1 X105.117 Y122.25 E22.78745
G1 X104.486 Y122.21 E22.80848
G1 X103.865 Y122.091 E22.82951
G1 X103.265 Y121.894 E22.85052
G1 X102.693 Y121.623 E22.87157
G1 X102.161 Y121.283 E22.89257
G1 X101.581 Y120.786 E22.91797
G1 X101.464 Y120.669 E22.92348
G1 X101.047 Y120.194 E22.9445
G1 X100.692 Y119.671 E22.96552
G1 X100.406 Y119.107 E22.98655
G1 X100.194 Y118.512 E23.00756
G1 X100.058 Y117.894 E23.02861
G1 X100 Y117.133 E23.05399
G1 X100 Y102.867 E23.52848
