;FLAVOR:Marlin
;TIME:2001
;Filament used: 1.19919m
;Layer height: 0.2
;MINX:89.7
;MINY:85.7
;MINZ:0.2
;MAXX:130.3
;MAXY:134.3
;MAXZ:5
;Generated with Cura_SteamEngine 4.10.0
M140 S80
M105
M190 S80
M104 S245
M105
M109 S245
M82 ;absolute extrusion mode
; Ender 3 Custom Start G-code
G92 E0 ; Reset Extruder
G28 ; Home all axes
G1 Z2.0 F3000 ; Move Z Axis up little to prevent scratching of Heat Bed
G1 X0.1 Y20 Z0.3 F5000.0 ; Move to start position
G1 X0.1 Y200.0 Z0.3 F1500.0 E15 ; Draw the first line
G1 X0.4 Y200.0 Z0.3 F5000.0 ; Move to side a little
G1 X0.4 Y20 Z0.3 F1500.0 E30 ; Draw the second line
G92 E0 ; Reset Extruder
G1 Z2.0 F3000 ; Move Z Axis up little to prevent scratching of Heat Bed
G1 X5 Y20 Z0.3 F5000.0 ; Move over to prevent blob squish
G92 E0
G92 E0
G1 F1200 E-3
;LAYER_COUNT:25
;LAYER:0
M107
G0 F6000 X91.985 Y88.102 Z0.2
;TYPE:SKIRT
G1 F1200 E0
G1 F900 X92.102 Y87.985 E0.0055
G1 X92.688 Y87.455 E0.03178
G1 X93.324 Y86.988 E0.05803
G1 X94.004 Y86.587 E0.08428
G1 X94.722 Y86.257 E0.11057
G1 X95.469 Y86.002 E0.13682
G1 X96.238 Y85.823 E0.16308
G1 X97.022 Y85.723 E0.18937
G1 X97.617 Y85.7 E0.20917
G1 X122.383 Y85.7 E1.03289
G1 X123.172 Y85.74 E1.05917
G1 X123.952 Y85.859 E1.08541
G1 X124.717 Y86.057 E1.11169
G1 X125.457 Y86.331 E1.13794
G1 X126.166 Y86.679 E1.16421
G1 X126.837 Y87.097 E1.1905
G1 X127.461 Y87.58 E1.21675
G1 X127.898 Y87.985 E1.23656
G1 X128.015 Y88.102 E1.24207
G1 X128.545 Y88.688 E1.26835
G1 X129.012 Y89.324 E1.29459
G1 X129.413 Y90.004 E1.32085
G1 X129.743 Y90.722 E1.34713
G1 X129.998 Y91.469 E1.37338
G1 X130.177 Y92.238 E1.39964
G1 X130.277 Y93.022 E1.42593
G1 X130.3 Y93.617 E1.44573
G1 X130.3 Y98.383 E1.60425
G1 X130.26 Y99.172 E1.63053
G1 X130.21 Y99.498 E1.6415
G1 X130.277 Y100.022 E1.65907
G1 X130.3 Y100.617 E1.67887
G1 X130.3 Y105.383 E1.83739
G1 X130.26 Y106.172 E1.86367
G1 X130.21 Y106.498 E1.87464
G1 X130.277 Y107.022 E1.89221
G1 X130.3 Y107.617 E1.91201
G1 X130.3 Y112.383 E2.07053
G1 X130.26 Y113.172 E2.0968
G1 X130.21 Y113.498 E2.10777
G1 X130.277 Y114.022 E2.12534
G1 X130.3 Y114.617 E2.14515
G1 X130.3 Y119.383 E2.30367
G1 X130.26 Y120.172 E2.32994
G1 X130.21 Y120.498 E2.34091
G1 X130.277 Y121.022 E2.35848
G1 X130.3 Y121.617 E2.37829
G1 X130.3 Y126.383 E2.5368
G1 X130.26 Y127.172 E2.56308
G1 X130.141 Y127.952 E2.58932
G1 X129.943 Y128.717 E2.61561
G1 X129.669 Y129.457 E2.64185
G1 X129.321 Y130.166 E2.66812
G1 X128.903 Y130.837 E2.69441
G1 X128.42 Y131.461 E2.72066
G1 X128.015 Y131.898 E2.74048
G1 X127.898 Y132.015 E2.74598
G1 X127.312 Y132.545 E2.77226
G1 X126.676 Y133.012 E2.7985
G1 X125.996 Y133.413 E2.82476
G1 X125.278 Y133.743 E2.85104
G1 X124.531 Y133.998 E2.87729
G1 X123.762 Y134.177 E2.90356
G1 X122.978 Y134.277 E2.92984
G1 X122.383 Y134.3 E2.94965
G1 X97.617 Y134.3 E3.77337
G1 X96.828 Y134.26 E3.79964
G1 X96.048 Y134.141 E3.82589
G1 X95.283 Y133.943 E3.85217
G1 X94.543 Y133.669 E3.87841
G1 X93.834 Y133.321 E3.90468
G1 X93.163 Y132.903 E3.93098
G1 X92.539 Y132.42 E3.95722
G1 X92.102 Y132.015 E3.97704
G1 X91.985 Y131.898 E3.98254
G1 X91.455 Y131.312 E4.00882
G1 X90.988 Y130.676 E4.03507
G1 X90.587 Y129.996 E4.06132
G1 X90.257 Y129.278 E4.08761
G1 X90.002 Y128.531 E4.11386
G1 X89.823 Y127.762 E4.14012
G1 X89.723 Y126.978 E4.16641
G1 X89.7 Y126.383 E4.18621
G1 X89.7 Y121.617 E4.34473
G1 X89.74 Y120.828 E4.371
G1 X89.79 Y120.502 E4.38197
G1 X89.723 Y119.978 E4.39954
G1 X89.7 Y119.383 E4.41935
G1 X89.7 Y114.617 E4.57787
G1 X89.74 Y113.828 E4.60414
G1 X89.79 Y113.502 E4.61511
G1 X89.723 Y112.978 E4.63268
G1 X89.7 Y112.383 E4.65249
G1 X89.7 Y107.617 E4.811
G1 X89.74 Y106.828 E4.83728
G1 X89.79 Y106.502 E4.84825
G1 X89.723 Y105.978 E4.86582
G1 X89.7 Y105.383 E4.88562
G1 X89.7 Y100.617 E5.04414
G1 X89.74 Y99.828 E5.07042
G1 X89.79 Y99.502 E5.08139
G1 X89.723 Y98.978 E5.09896
G1 X89.7 Y98.383 E5.11876
G1 X89.7 Y93.617 E5.27728
G1 X89.74 Y92.828 E5.30356
G1 X89.859 Y92.048 E5.3298
G1 X90.057 Y91.283 E5.35608
G1 X90.331 Y90.543 E5.38233
G1 X90.679 Y89.834 E5.4086
G1 X91.097 Y89.163 E5.43489
G1 X91.58 Y88.539 E5.46114
G1 X91.985 Y88.102 E5.48095
G0 F6000 X92.267 Y88.384
G1 F900 X92.384 Y88.267 E5.48646
G1 X92.956 Y87.753 E5.51203
G1 X93.578 Y87.3 E5.53763
G1 X94.243 Y86.914 E5.5632
G1 X94.945 Y86.599 E5.58879
G1 X95.676 Y86.359 E5.61438
G1 X96.427 Y86.196 E5.63994
G1 X97.192 Y86.112 E5.66554
G1 X97.617 Y86.1 E5.67968
G1 X122.383 Y86.1 E6.5034
G1 X123.151 Y86.14 E6.52898
G1 X123.911 Y86.259 E6.55456
G1 X124.654 Y86.457 E6.58014
G1 X125.373 Y86.731 E6.60573
G1 X126.059 Y87.078 E6.6313
G1 X126.706 Y87.494 E6.65688
G1 X127.306 Y87.975 E6.68246
G1 X127.616 Y88.267 E6.69663
G1 X127.733 Y88.384 E6.70213
G1 X128.247 Y88.956 E6.72771
G1 X128.7 Y89.578 E6.7533
G1 X129.086 Y90.243 E6.77887
G1 X129.401 Y90.945 E6.80446
G1 X129.641 Y91.676 E6.83005
G1 X129.804 Y92.427 E6.85561
G1 X129.888 Y93.192 E6.88121
G1 X129.9 Y93.617 E6.89535
G1 X129.9 Y98.383 E7.05387
G1 X129.86 Y99.151 E7.07945
G1 X129.809 Y99.475 E7.09036
G1 X129.888 Y100.192 E7.11435
G1 X129.9 Y100.617 E7.12849
G1 X129.9 Y105.383 E7.28701
G1 X129.86 Y106.151 E7.31259
G1 X129.809 Y106.475 E7.3235
G1 X129.888 Y107.192 E7.34749
G1 X129.9 Y107.617 E7.36163
G1 X129.9 Y112.383 E7.52015
G1 X129.86 Y113.151 E7.54573
G1 X129.809 Y113.475 E7.55663
G1 X129.888 Y114.192 E7.58063
G1 X129.9 Y114.617 E7.59477
G1 X129.9 Y119.383 E7.75328
G1 X129.86 Y120.151 E7.77886
G1 X129.809 Y120.475 E7.78977
G1 X129.888 Y121.192 E7.81376
G1 X129.9 Y121.617 E7.82791
G1 X129.9 Y126.383 E7.98642
G1 X129.86 Y127.151 E8.012
G1 X129.741 Y127.911 E8.03759
G1 X129.543 Y128.654 E8.06316
G1 X129.269 Y129.373 E8.08875
G1 X128.922 Y130.059 E8.11432
G1 X128.506 Y130.706 E8.13991
G1 X128.025 Y131.306 E8.16548
G1 X127.733 Y131.616 E8.17965
G1 X127.616 Y131.733 E8.18515
G1 X127.044 Y132.247 E8.21073
G1 X126.422 Y132.7 E8.23632
G1 X125.757 Y133.086 E8.2619
G1 X125.055 Y133.401 E8.28749
G1 X124.324 Y133.641 E8.31308
G1 X123.573 Y133.804 E8.33864
G1 X122.808 Y133.888 E8.36423
G1 X122.383 Y133.9 E8.37838
G1 X97.617 Y133.9 E9.2021
G1 X96.849 Y133.86 E9.22767
G1 X96.089 Y133.741 E9.25326
G1 X95.346 Y133.543 E9.27883
G1 X94.627 Y133.269 E9.30443
G1 X93.941 Y132.922 E9.33
G1 X93.294 Y132.506 E9.35558
G1 X92.694 Y132.025 E9.38116
G1 X92.384 Y131.733 E9.39532
G1 X92.267 Y131.616 E9.40082
G1 X91.753 Y131.044 E9.4264
G1 X91.3 Y130.422 E9.45199
G1 X90.914 Y129.757 E9.47757
G1 X90.599 Y129.055 E9.50316
G1 X90.359 Y128.324 E9.52875
G1 X90.196 Y127.573 E9.55431
G1 X90.112 Y126.808 E9.57991
G1 X90.1 Y126.383 E9.59405
G1 X90.1 Y121.617 E9.75257
G1 X90.14 Y120.849 E9.77814
G1 X90.191 Y120.525 E9.78905
G1 X90.112 Y119.808 E9.81304
G1 X90.1 Y119.383 E9.82719
G1 X90.1 Y114.617 E9.9857
G1 X90.14 Y113.849 E10.01128
G1 X90.191 Y113.525 E10.02219
G1 X90.112 Y112.808 E10.04618
G1 X90.1 Y112.383 E10.06032
G1 X90.1 Y107.617 E10.21884
G1 X90.14 Y106.849 E10.24442
G1 X90.191 Y106.525 E10.25533
G1 X90.112 Y105.808 E10.27932
G1 X90.1 Y105.383 E10.29346
G1 X90.1 Y100.617 E10.45198
G1 X90.14 Y99.849 E10.47756
G1 X90.191 Y99.525 E10.48847
G1 X90.112 Y98.808 E10.51246
G1 X90.1 Y98.383 E10.5266
G1 X90.1 Y93.617 E10.68512
G1 X90.14 Y92.849 E10.7107
G1 X90.259 Y92.089 E10.73628
G1 X90.457 Y91.346 E10.76186
G1 X90.731 Y90.627 E10.78745
G1 X91.078 Y89.941 E10.81302
G1 X91.494 Y89.294 E10.8386
G1 X91.975 Y88.694 E10.86418
G1 X92.267 Y88.384 E10.87834
G0 F6000 X92.55 Y88.667
G1 F900 X92.667 Y88.55 E10.88385
G1 X93.224 Y88.05 E10.90874
G1 X93.83 Y87.613 E10.93359
G1 X94.48 Y87.242 E10.95848
G1 X95.166 Y86.943 E10.98337
G1 X95.88 Y86.719 E11.00826
G1 X96.613 Y86.572 E11.03313
G1 X97.617 Y86.5 E11.06661
G1 X122.383 Y86.5 E11.89033
G1 X123.13 Y86.54 E11.91521
G1 X123.868 Y86.659 E11.94007
G1 X124.59 Y86.857 E11.96497
G1 X125.286 Y87.13 E11.98984
G1 X125.949 Y87.477 E12.01473
G1 X126.572 Y87.892 E12.03962
G1 X127.333 Y88.55 E12.07308
G1 X127.45 Y88.667 E12.07859
G1 X127.95 Y89.224 E12.10348
G1 X128.387 Y89.83 E12.12833
G1 X128.758 Y90.48 E12.15323
G1 X129.057 Y91.166 E12.17812
G1 X129.281 Y91.88 E12.203
G1 X129.428 Y92.613 E12.22787
G1 X129.5 Y93.617 E12.26135
G1 X129.5 Y98.383 E12.41987
G1 X129.46 Y99.13 E12.44475
G1 X129.403 Y99.486 E12.45674
G1 X129.428 Y99.613 E12.46104
G1 X129.5 Y100.617 E12.49452
G1 X129.5 Y105.383 E12.65304
G1 X129.46 Y106.13 E12.67792
G1 X129.403 Y106.486 E12.68991
G1 X129.428 Y106.613 E12.69422
G1 X129.5 Y107.617 E12.7277
G1 X129.5 Y112.383 E12.88621
G1 X129.46 Y113.13 E12.9111
G1 X129.403 Y113.486 E12.92309
G1 X129.428 Y113.613 E12.92739
G1 X129.5 Y114.617 E12.96087
G1 X129.5 Y119.383 E13.11939
G1 X129.46 Y120.13 E13.14427
G1 X129.403 Y120.486 E13.15626
G1 X129.428 Y120.613 E13.16057
G1 X129.5 Y121.617 E13.19405
G1 X129.5 Y126.383 E13.35256
G1 X129.46 Y127.13 E13.37744
G1 X129.341 Y127.868 E13.40231
G1 X129.143 Y128.59 E13.42721
G1 X128.87 Y129.286 E13.45207
G1 X128.523 Y129.949 E13.47696
G1 X128.108 Y130.572 E13.50186
G1 X127.45 Y131.333 E13.53532
G1 X127.333 Y131.45 E13.54082
G1 X126.776 Y131.95 E13.56572
G1 X126.17 Y132.387 E13.59057
G1 X125.52 Y132.758 E13.61546
G1 X124.834 Y133.057 E13.64035
G1 X124.12 Y133.281 E13.66524
G1 X123.387 Y133.428 E13.69011
G1 X122.383 Y133.5 E13.72358
G1 X97.617 Y133.5 E14.5473
G1 X96.87 Y133.46 E14.57219
G1 X96.132 Y133.341 E14.59705
G1 X95.41 Y133.143 E14.62195
G1 X94.714 Y132.87 E14.64682
G1 X94.051 Y132.523 E14.6717
G1 X93.428 Y132.108 E14.6966
G1 X92.667 Y131.45 E14.73006
G1 X92.55 Y131.333 E14.73557
G1 X92.05 Y130.776 E14.76046
G1 X91.613 Y130.17 E14.78531
G1 X91.242 Y129.52 E14.8102
G1 X90.943 Y128.834 E14.83509
G1 X90.719 Y128.12 E14.85998
G1 X90.572 Y127.387 E14.88485
G1 X90.5 Y126.383 E14.91833
G1 X90.5 Y121.617 E15.07684
G1 X90.54 Y120.87 E15.10172
G1 X90.597 Y120.514 E15.11372
G1 X90.572 Y120.387 E15.11802
G1 X90.5 Y119.383 E15.1515
G1 X90.5 Y114.617 E15.31002
G1 X90.54 Y113.87 E15.3349
G1 X90.597 Y113.514 E15.34689
G1 X90.572 Y113.387 E15.35119
G1 X90.5 Y112.383 E15.38467
G1 X90.5 Y107.617 E15.54319
G1 X90.54 Y106.87 E15.56807
G1 X90.597 Y106.514 E15.58006
G1 X90.572 Y106.387 E15.58437
G1 X90.5 Y105.383 E15.61785
G1 X90.5 Y100.617 E15.77637
G1 X90.54 Y99.87 E15.80125
G1 X90.597 Y99.514 E15.81324
G1 X90.572 Y99.387 E15.81754
G1 X90.5 Y98.383 E15.85102
G1 X90.5 Y93.617 E16.00954
G1 X90.54 Y92.87 E16.03442
G1 X90.659 Y92.132 E16.05928
G1 X90.857 Y91.41 E16.08418
G1 X91.13 Y90.714 E16.10905
G1 X91.477 Y90.051 E16.13394
G1 X91.892 Y89.428 E16.15884
G1 X92.55 Y88.667 E16.1923
G0 F6000 X92.833 Y88.95
G1 F900 X92.95 Y88.833 E16.1978
G1 X93.491 Y88.349 E16.22194
G1 X94.082 Y87.926 E16.24612
G1 X94.716 Y87.572 E16.27027
G1 X95.385 Y87.289 E16.29443
G1 X96.081 Y87.081 E16.31859
G1 X96.796 Y86.951 E16.34276
G1 X97.617 Y86.9 E16.37012
G1 X122.383 Y86.9 E17.19384
G1 X123.108 Y86.94 E17.21799
G1 X123.825 Y87.059 E17.24216
G1 X124.524 Y87.257 E17.26633
G1 X125.197 Y87.53 E17.29048
G1 X125.836 Y87.875 E17.31464
G1 X126.433 Y88.289 E17.3388
G1 X127.05 Y88.833 E17.36616
G1 X127.167 Y88.95 E17.37166
G1 X127.651 Y89.491 E17.39581
G1 X128.074 Y90.082 E17.41998
G1 X128.428 Y90.716 E17.44413
G1 X128.711 Y91.385 E17.46829
G1 X128.919 Y92.081 E17.49245
G1 X129.049 Y92.796 E17.51662
G1 X129.1 Y93.617 E17.54398
G1 X129.1 Y98.383 E17.7025
G1 X129.06 Y99.108 E17.72665
G1 X128.995 Y99.499 E17.73983
G1 X129.049 Y99.796 E17.74987
G1 X129.1 Y100.617 E17.77723
G1 X129.1 Y105.383 E17.93575
G1 X129.06 Y106.108 E17.9599
G1 X128.995 Y106.499 E17.97308
G1 X129.049 Y106.796 E17.98312
G1 X129.1 Y107.617 E18.01048
G1 X129.1 Y112.383 E18.169
G1 X129.06 Y113.108 E18.19315
G1 X128.995 Y113.499 E18.20633
G1 X129.049 Y113.796 E18.21637
G1 X129.1 Y114.617 E18.24373
G1 X129.1 Y119.383 E18.40225
G1 X129.06 Y120.108 E18.4264
G1 X128.995 Y120.499 E18.43958
G1 X129.049 Y120.796 E18.44962
G1 X129.1 Y121.617 E18.47698
G1 X129.1 Y126.383 E18.6355
G1 X129.06 Y127.108 E18.65965
G1 X128.941 Y127.825 E18.68383
G1 X128.743 Y128.524 E18.70799
G1 X128.47 Y129.197 E18.73214
G1 X128.125 Y129.836 E18.7563
G1 X127.711 Y130.433 E18.78046
G1 X127.167 Y131.05 E18.80782
G1 X127.05 Y131.167 E18.81332
G1 X126.509 Y131.651 E18.83747
G1 X125.918 Y132.074 E18.86164
G1 X125.284 Y132.428 E18.88579
G1 X124.615 Y132.711 E18.90995
G1 X123.919 Y132.919 E18.93411
G1 X123.204 Y133.049 E18.95828
G1 X122.383 Y133.1 E18.98564
G1 X97.617 Y133.1 E19.80936
G1 X96.892 Y133.06 E19.83351
G1 X96.175 Y132.941 E19.85769
G1 X95.476 Y132.743 E19.88185
G1 X94.803 Y132.47 E19.90601
G1 X94.164 Y132.125 E19.93016
G1 X93.567 Y131.711 E19.95432
G1 X92.95 Y131.167 E19.98168
G1 X92.833 Y131.05 E19.98718
G1 X92.349 Y130.509 E20.01133
G1 X91.926 Y129.918 E20.0355
G1 X91.572 Y129.284 E20.05965
G1 X91.289 Y128.615 E20.08381
G1 X91.081 Y127.919 E20.10797
G1 X90.951 Y127.204 E20.13214
G1 X90.9 Y126.383 E20.1595
G1 X90.9 Y121.617 E20.31802
G1 X90.94 Y120.892 E20.34217
G1 X91.005 Y120.501 E20.35535
G1 X90.951 Y120.204 E20.36539
G1 X90.9 Y119.383 E20.39275
G1 X90.9 Y114.617 E20.55127
G1 X90.94 Y113.892 E20.57542
G1 X91.005 Y113.501 E20.5886
G1 X90.951 Y113.204 E20.59864
G1 X90.9 Y112.383 E20.626
G1 X90.9 Y107.617 E20.78452
G1 X90.94 Y106.892 E20.80867
G1 X91.005 Y106.501 E20.82186
G1 X90.951 Y106.204 E20.8319
G1 X90.9 Y105.383 E20.85925
G1 X90.9 Y100.617 E21.01777
G1 X90.94 Y99.892 E21.04192
G1 X91.005 Y99.501 E21.05511
G1 X90.951 Y99.204 E21.06515
G1 X90.9 Y98.383 E21.09251
G1 X90.9 Y93.617 E21.25102
G1 X90.94 Y92.892 E21.27517
G1 X91.059 Y92.175 E21.29935
G1 X91.257 Y91.476 E21.32351
G1 X91.53 Y90.803 E21.34767
G1 X91.875 Y90.164 E21.37182
G1 X92.289 Y89.567 E21.39598
G1 X92.833 Y88.95 E21.42334
G0 F6000 X93.116 Y89.233
G1 F900 X93.233 Y89.116 E21.42885
G1 X93.758 Y88.647 E21.45226
G1 X94.333 Y88.241 E21.47567
G1 X94.951 Y87.903 E21.4991
G1 X95.602 Y87.636 E21.5225
G1 X96.28 Y87.446 E21.54592
G1 X96.975 Y87.333 E21.56934
G1 X97.617 Y87.3 E21.59072
G1 X122.383 Y87.3 E22.41444
G1 X123.086 Y87.34 E22.43786
G1 X123.78 Y87.459 E22.46128
G1 X124.455 Y87.657 E22.48468
G1 X125.104 Y87.929 E22.50808
G1 X125.718 Y88.274 E22.53151
G1 X126.289 Y88.685 E22.55491
G1 X126.767 Y89.116 E22.57631
G1 X126.884 Y89.233 E22.58182
G1 X127.353 Y89.758 E22.60523
G1 X127.759 Y90.333 E22.62864
G1 X128.097 Y90.951 E22.65207
G1 X128.364 Y91.602 E22.67547
G1 X128.554 Y92.28 E22.69889
G1 X128.667 Y92.975 E22.72231
G1 X128.7 Y93.617 E22.74369
G1 X128.7 Y98.383 E22.90221
G1 X128.66 Y99.086 E22.92563
G1 X128.589 Y99.498 E22.93954
G1 X128.667 Y99.975 E22.95561
G1 X128.7 Y100.617 E22.97699
G1 X128.7 Y105.383 E23.13551
G1 X128.66 Y106.086 E23.15893
G1 X128.589 Y106.498 E23.17284
G1 X128.667 Y106.975 E23.18891
G1 X128.7 Y107.617 E23.21029
G1 X128.7 Y112.383 E23.36881
G1 X128.66 Y113.086 E23.39223
G1 X128.589 Y113.498 E23.40614
G1 X128.667 Y113.975 E23.42221
G1 X128.7 Y114.617 E23.44359
G1 X128.7 Y119.383 E23.60211
G1 X128.66 Y120.086 E23.62553
G1 X128.589 Y120.498 E23.63944
G1 X128.667 Y120.975 E23.65551
G1 X128.7 Y121.617 E23.67689
G1 X128.7 Y126.383 E23.83541
G1 X128.66 Y127.086 E23.85883
G1 X128.541 Y127.78 E23.88225
G1 X128.343 Y128.455 E23.90565
G1 X128.071 Y129.104 E23.92905
G1 X127.726 Y129.718 E23.95248
G1 X127.315 Y130.289 E23.97588
G1 X126.884 Y130.767 E23.99728
G1 X126.767 Y130.884 E24.00279
G1 X126.242 Y131.353 E24.0262
G1 X125.667 Y131.759 E24.04961
G1 X125.049 Y132.097 E24.07304
G1 X124.398 Y132.364 E24.09644
G1 X123.72 Y132.554 E24.11986
G1 X123.025 Y132.667 E24.14328
G1 X122.383 Y132.7 E24.16466
G1 X97.617 Y132.7 E24.98838
G1 X96.914 Y132.66 E25.0118
G1 X96.22 Y132.541 E25.03522
G1 X95.545 Y132.343 E25.05862
G1 X94.896 Y132.071 E25.08202
G1 X94.282 Y131.726 E25.10545
G1 X93.711 Y131.315 E25.12885
G1 X93.233 Y130.884 E25.15025
G1 X93.116 Y130.767 E25.15576
G1 X92.647 Y130.242 E25.17917
G1 X92.241 Y129.667 E25.20258
G1 X91.903 Y129.049 E25.22601
G1 X91.636 Y128.398 E25.24941
G1 X91.446 Y127.72 E25.27283
G1 X91.333 Y127.025 E25.29625
G1 X91.3 Y126.383 E25.31763
G1 X91.3 Y121.617 E25.47615
G1 X91.34 Y120.914 E25.49957
G1 X91.411 Y120.502 E25.51348
G1 X91.333 Y120.025 E25.52955
G1 X91.3 Y119.383 E25.55093
G1 X91.3 Y114.617 E25.70945
G1 X91.34 Y113.914 E25.73287
G1 X91.411 Y113.502 E25.74678
G1 X91.333 Y113.025 E25.76285
G1 X91.3 Y112.383 E25.78423
