;FLAVOR:Marlin
;TIME:8892
;Filament used: 6.15053m
;Layer height: 0.2
;MINX:54.6
;MINY:93.1
;MINZ:0.2
;MAXX:165.4
;MAXY:126.9
;MAXZ:19
;Generated with Cura_SteamEngine 4.10.0
M140 S80
M105
M190 S80
M104 S245
M105
M109 S245
M82 ;absolute extrusion mode
; Ender 3 Custom Start G-code
G92 E0 ; Reset Extruder
G28 ; Home all axes
G1 Z2.0 F3000 ; Move Z Axis up little to prevent scratching of Heat Bed
G1 X0.1 Y20 Z0.3 F5000.0 ; Move to start position
G1 X0.1 Y200.0 Z0.3 F1500.0 E15 ; Draw the first line
G1 X0.4 Y200.0 Z0.3 F5000.0 ; Move to side a little
G1 X0.4 Y20 Z0.3 F1500.0 E30 ; Draw the second line
G92 E0 ; Reset Extruder
G1 Z2.0 F3000 ; Move Z Axis up little to prevent scratching of Heat Bed
G1 X5 Y20 Z0.3 F5000.0 ; Move over to prevent blob squish
G92 E0
G92 E0
G1 F1200 E-3
;LAYER_COUNT:95
;LAYER:0
M107
G0 F6000 X58.224 Y94.388 Z0.2
;TYPE:SKIRT
G1 F1200 E0
G1 F900 X58.904 Y93.987 E0.02626
G1 X59.622 Y93.657 E0.05254
G1 X60.369 Y93.402 E0.07879
G1 X61.138 Y93.223 E0.10505
G1 X61.922 Y93.123 E0.13134
G1 X62.517 Y93.1 E0.15114
G1 X157.483 Y93.1 E3.30973
G1 X158.272 Y93.14 E3.336
G1 X159.052 Y93.259 E3.36225
G1 X159.817 Y93.457 E3.38853
G1 X160.557 Y93.731 E3.41477
G1 X161.266 Y94.079 E3.44104
G1 X161.937 Y94.497 E3.46734
G1 X162.561 Y94.98 E3.49358
G1 X162.998 Y95.385 E3.5134
G1 X163.115 Y95.502 E3.5189
G1 X163.645 Y96.088 E3.54518
G1 X164.112 Y96.724 E3.57142
G1 X164.513 Y97.404 E3.59768
G1 X164.843 Y98.122 E3.62396
G1 X165.098 Y98.869 E3.65022
G1 X165.277 Y99.638 E3.67648
G1 X165.377 Y100.422 E3.70276
G1 X165.4 Y101.017 E3.72257
G1 X165.4 Y118.983 E4.32012
G1 X165.36 Y119.772 E4.3464
G1 X165.241 Y120.552 E4.37264
G1 X165.043 Y121.317 E4.39892
G1 X164.769 Y122.057 E4.42517
G1 X164.421 Y122.766 E4.45144
G1 X164.003 Y123.437 E4.47773
G1 X163.52 Y124.061 E4.50398
G1 X163.115 Y124.498 E4.52379
G1 X162.998 Y124.615 E4.5293
G1 X162.412 Y125.145 E4.55558
G1 X161.776 Y125.612 E4.58182
G1 X161.096 Y126.013 E4.60808
G1 X160.378 Y126.343 E4.63436
G1 X159.631 Y126.598 E4.66061
G1 X158.862 Y126.777 E4.68687
G1 X158.078 Y126.877 E4.71316
G1 X157.483 Y126.9 E4.73296
G1 X62.517 Y126.9 E7.89155
G1 X61.728 Y126.86 E7.91782
G1 X60.948 Y126.741 E7.94406
G1 X60.183 Y126.543 E7.97035
G1 X59.443 Y126.269 E7.99659
G1 X58.734 Y125.921 E8.02286
G1 X58.063 Y125.503 E8.04916
G1 X57.439 Y125.02 E8.0754
G1 X57.002 Y124.615 E8.09522
G1 X56.885 Y124.498 E8.10072
G1 X56.355 Y123.912 E8.127
G1 X55.888 Y123.276 E8.15324
G1 X55.487 Y122.596 E8.1795
G1 X55.157 Y121.878 E8.20578
G1 X54.902 Y121.131 E8.23204
G1 X54.723 Y120.362 E8.2583
G1 X54.623 Y119.578 E8.28458
G1 X54.6 Y118.983 E8.30439
G1 X54.6 Y101.017 E8.90194
G1 X54.64 Y100.228 E8.92822
G1 X54.759 Y99.448 E8.95446
G1 X54.957 Y98.683 E8.98074
G1 X55.231 Y97.943 E9.00699
G1 X55.579 Y97.234 E9.03326
G1 X55.997 Y96.563 E9.05955
G1 X56.48 Y95.939 E9.08579
G1 X56.885 Y95.502 E9.10561
G1 X57.002 Y95.385 E9.11112
G1 X57.588 Y94.855 E9.13739
G1 X58.224 Y94.388 E9.16364
G0 F6000 X58.478 Y94.7
G1 F900 X59.143 Y94.314 E9.18921
G1 X59.845 Y93.999 E9.2148
G1 X60.576 Y93.759 E9.24039
G1 X61.327 Y93.596 E9.26595
G1 X62.092 Y93.512 E9.29155
G1 X62.517 Y93.5 E9.30569
G1 X157.483 Y93.5 E12.46427
G1 X158.251 Y93.54 E12.48985
G1 X159.011 Y93.659 E12.51544
G1 X159.754 Y93.857 E12.54101
G1 X160.473 Y94.131 E12.5666
G1 X161.159 Y94.478 E12.59217
G1 X161.806 Y94.894 E12.61776
G1 X162.406 Y95.375 E12.64333
G1 X162.716 Y95.667 E12.6575
G1 X162.833 Y95.784 E12.663
G1 X163.347 Y96.356 E12.68858
G1 X163.8 Y96.978 E12.71417
G1 X164.186 Y97.643 E12.73975
G1 X164.501 Y98.345 E12.76534
G1 X164.741 Y99.076 E12.79093
G1 X164.904 Y99.827 E12.81649
G1 X164.988 Y100.592 E12.84208
G1 X165 Y101.017 E12.85623
G1 X165 Y118.983 E13.45378
G1 X164.96 Y119.751 E13.47936
G1 X164.841 Y120.511 E13.50494
G1 X164.643 Y121.254 E13.53052
G1 X164.369 Y121.973 E13.55611
G1 X164.022 Y122.659 E13.58168
G1 X163.606 Y123.306 E13.60726
G1 X163.125 Y123.906 E13.63284
G1 X162.833 Y124.216 E13.647
G1 X162.716 Y124.333 E13.65251
G1 X162.144 Y124.847 E13.67808
G1 X161.522 Y125.3 E13.70368
G1 X160.857 Y125.686 E13.72925
G1 X160.155 Y126.001 E13.75484
G1 X159.424 Y126.241 E13.78043
G1 X158.673 Y126.404 E13.80599
G1 X157.908 Y126.488 E13.83159
G1 X157.483 Y126.5 E13.84573
G1 X62.517 Y126.5 E17.00431
G1 X61.749 Y126.46 E17.02989
G1 X60.989 Y126.341 E17.05548
G1 X60.246 Y126.143 E17.08105
G1 X59.527 Y125.869 E17.10664
G1 X58.841 Y125.522 E17.13221
G1 X58.194 Y125.106 E17.1578
G1 X57.594 Y124.625 E17.18337
G1 X57.284 Y124.333 E17.19754
G1 X57.167 Y124.216 E17.20304
G1 X56.653 Y123.644 E17.22862
G1 X56.2 Y123.022 E17.25421
G1 X55.814 Y122.357 E17.27978
G1 X55.499 Y121.655 E17.30538
G1 X55.259 Y120.924 E17.33097
G1 X55.096 Y120.173 E17.35653
G1 X55.012 Y119.408 E17.38212
G1 X55 Y118.983 E17.39626
G1 X55 Y101.017 E17.99382
G1 X55.04 Y100.249 E18.01939
G1 X55.159 Y99.489 E18.04498
G1 X55.357 Y98.746 E18.07055
G1 X55.631 Y98.027 E18.09615
G1 X55.978 Y97.341 E18.12172
G1 X56.394 Y96.694 E18.1473
G1 X56.875 Y96.094 E18.17288
G1 X57.167 Y95.784 E18.18704
G1 X57.284 Y95.667 E18.19254
G1 X57.856 Y95.153 E18.21812
G1 X58.478 Y94.7 E18.24371
G0 F6000 X58.73 Y95.013
G1 F900 X59.38 Y94.642 E18.26861
G1 X60.066 Y94.343 E18.2935
G1 X60.78 Y94.119 E18.31839
G1 X61.513 Y93.972 E18.34325
G1 X62.517 Y93.9 E18.37673
G1 X157.483 Y93.9 E21.53531
G1 X158.23 Y93.94 E21.56019
G1 X158.968 Y94.059 E21.58506
G1 X159.69 Y94.257 E21.60996
G1 X160.386 Y94.53 E21.63482
G1 X161.049 Y94.877 E21.65971
G1 X161.672 Y95.292 E21.68461
G1 X162.433 Y95.95 E21.71807
G1 X162.55 Y96.067 E21.72357
G1 X163.05 Y96.624 E21.74847
G1 X163.487 Y97.23 E21.77332
G1 X163.858 Y97.88 E21.79821
G1 X164.157 Y98.566 E21.8231
G1 X164.381 Y99.28 E21.84799
G1 X164.528 Y100.013 E21.87285
G1 X164.6 Y101.017 E21.90633
G1 X164.6 Y118.983 E22.50388
G1 X164.56 Y119.73 E22.52876
G1 X164.441 Y120.468 E22.55363
G1 X164.243 Y121.19 E22.57853
G1 X163.97 Y121.886 E22.60339
G1 X163.623 Y122.549 E22.62828
G1 X163.208 Y123.172 E22.65318
G1 X162.55 Y123.933 E22.68664
G1 X162.433 Y124.05 E22.69214
G1 X161.876 Y124.55 E22.71704
G1 X161.27 Y124.987 E22.74189
G1 X160.62 Y125.358 E22.76678
G1 X159.934 Y125.657 E22.79167
G1 X159.22 Y125.881 E22.81656
G1 X158.487 Y126.028 E22.84143
G1 X157.483 Y126.1 E22.8749
G1 X62.517 Y126.1 E26.03349
G1 X61.77 Y126.06 E26.05837
G1 X61.032 Y125.941 E26.08323
G1 X60.31 Y125.743 E26.10813
G1 X59.614 Y125.47 E26.133
G1 X58.951 Y125.123 E26.15789
G1 X58.328 Y124.708 E26.18278
G1 X57.567 Y124.05 E26.21624
G1 X57.45 Y123.933 E26.22175
G1 X56.95 Y123.376 E26.24664
G1 X56.513 Y122.77 E26.27149
G1 X56.142 Y122.12 E26.29639
G1 X55.843 Y121.434 E26.32128
G1 X55.619 Y120.72 E26.34616
G1 X55.472 Y119.987 E26.37103
G1 X55.4 Y118.983 E26.40451
G1 X55.4 Y101.017 E27.00206
G1 X55.44 Y100.27 E27.02694
G1 X55.559 Y99.532 E27.0518
G1 X55.757 Y98.81 E27.0767
G1 X56.03 Y98.114 E27.10157
G1 X56.377 Y97.451 E27.12646
G1 X56.792 Y96.828 E27.15136
G1 X57.45 Y96.067 E27.18482
G1 X57.567 Y95.95 E27.19032
G1 X58.124 Y95.45 E27.21522
G1 X58.73 Y95.013 E27.24007
G0 F6000 X58.982 Y95.326
G1 F900 X59.616 Y94.972 E27.26422
G1 X60.285 Y94.689 E27.28838
G1 X60.981 Y94.481 E27.31254
G1 X61.696 Y94.351 E27.33671
G1 X62.517 Y94.3 E27.36407
G1 X157.483 Y94.3 E30.52265
G1 X158.208 Y94.34 E30.5468
G1 X158.925 Y94.459 E30.57097
G1 X159.624 Y94.657 E30.59514
G1 X160.297 Y94.93 E30.61929
G1 X160.936 Y95.275 E30.64345
G1 X161.533 Y95.689 E30.66761
G1 X162.15 Y96.233 E30.69497
G1 X162.267 Y96.35 E30.70047
G1 X162.751 Y96.891 E30.72462
G1 X163.174 Y97.482 E30.74879
G1 X163.528 Y98.116 E30.77294
G1 X163.811 Y98.785 E30.7971
G1 X164.019 Y99.481 E30.82126
G1 X164.149 Y100.196 E30.84543
G1 X164.2 Y101.017 E30.87279
G1 X164.2 Y118.983 E31.47034
G1 X164.16 Y119.708 E31.49449
G1 X164.041 Y120.425 E31.51867
G1 X163.843 Y121.124 E31.54283
G1 X163.57 Y121.797 E31.56698
G1 X163.225 Y122.436 E31.59114
G1 X162.811 Y123.033 E31.6153
G1 X162.267 Y123.65 E31.64266
G1 X162.15 Y123.767 E31.64816
G1 X161.609 Y124.251 E31.67231
G1 X161.018 Y124.674 E31.69648
G1 X160.384 Y125.028 E31.72063
G1 X159.715 Y125.311 E31.74479
G1 X159.019 Y125.519 E31.76895
G1 X158.304 Y125.649 E31.79312
G1 X157.483 Y125.7 E31.82048
G1 X62.517 Y125.7 E34.97906
G1 X61.792 Y125.66 E35.00321
G1 X61.075 Y125.541 E35.02739
G1 X60.376 Y125.343 E35.05155
G1 X59.703 Y125.07 E35.07571
G1 X59.064 Y124.725 E35.09986
G1 X58.467 Y124.311 E35.12402
G1 X57.85 Y123.767 E35.15138
G1 X57.733 Y123.65 E35.15689
G1 X57.249 Y123.109 E35.18103
G1 X56.826 Y122.518 E35.2052
G1 X56.472 Y121.884 E35.22935
G1 X56.189 Y121.215 E35.25351
G1 X55.981 Y120.519 E35.27767
G1 X55.851 Y119.804 E35.30185
G1 X55.8 Y118.983 E35.3292
G1 X55.8 Y101.017 E35.92676
G1 X55.84 Y100.292 E35.95091
G1 X55.959 Y99.575 E35.97508
G1 X56.157 Y98.876 E35.99924
G1 X56.43 Y98.203 E36.0234
G1 X56.775 Y97.564 E36.04755
G1 X57.189 Y96.967 E36.07172
G1 X57.733 Y96.35 E36.09907
G1 X57.85 Y96.233 E36.10458
G1 X58.391 Y95.749 E36.12872
G1 X58.982 Y95.326 E36.15289
G0 F6000 X59.233 Y95.641
G1 F900 X59.851 Y95.303 E36.17632
G1 X60.502 Y95.036 E36.19973
G1 X61.18 Y94.846 E36.22314
G1 X61.875 Y94.733 E36.24656
G1 X62.517 Y94.7 E36.26795
G1 X157.483 Y94.7 E39.42653
G1 X158.186 Y94.74 E39.44995
G1 X158.88 Y94.859 E39.47337
G1 X159.555 Y95.057 E39.49676
G1 X160.204 Y95.329 E39.52017
G1 X160.818 Y95.674 E39.54359
G1 X161.389 Y96.085 E39.56699
G1 X161.867 Y96.516 E39.5884
G1 X161.984 Y96.633 E39.5939
G1 X162.453 Y97.158 E39.61732
G1 X162.859 Y97.733 E39.64073
G1 X163.197 Y98.351 E39.66416
G1 X163.464 Y99.002 E39.68756
G1 X163.654 Y99.68 E39.71098
G1 X163.767 Y100.375 E39.7344
G1 X163.8 Y101.017 E39.75578
G1 X163.8 Y118.983 E40.35333
G1 X163.76 Y119.686 E40.37675
G1 X163.641 Y120.38 E40.40017
G1 X163.443 Y121.055 E40.42357
G1 X163.171 Y121.704 E40.44697
G1 X162.826 Y122.318 E40.4704
G1 X162.415 Y122.889 E40.4938
G1 X161.984 Y123.367 E40.5152
G1 X161.867 Y123.484 E40.52071
G1 X161.342 Y123.953 E40.54412
G1 X160.767 Y124.359 E40.56753
G1 X160.149 Y124.697 E40.59096
G1 X159.498 Y124.964 E40.61436
G1 X158.82 Y125.154 E40.63778
G1 X158.125 Y125.267 E40.6612
G1 X157.483 Y125.3 E40.68258
G1 X62.517 Y125.3 E43.84116
G1 X61.814 Y125.26 E43.86458
G1 X61.12 Y125.141 E43.888
G1 X60.445 Y124.943 E43.9114
G1 X59.796 Y124.671 E43.9348
G1 X59.182 Y124.326 E43.95823
G1 X58.611 Y123.915 E43.98163
G1 X58.133 Y123.484 E44.00304
G1 X58.016 Y123.367 E44.00854
G1 X57.547 Y122.842 E44.03195
G1 X57.141 Y122.267 E44.05537
G1 X56.803 Y121.649 E44.07879
G1 X56.536 Y120.998 E44.1022
G1 X56.346 Y120.32 E44.12561
G1 X56.233 Y119.625 E44.14903
G1 X56.2 Y118.983 E44.17042
G1 X56.2 Y101.017 E44.76797
G1 X56.24 Y100.314 E44.79139
G1 X56.359 Y99.62 E44.81481
G1 X56.557 Y98.945 E44.8382
G1 X56.829 Y98.296 E44.86161
G1 X57.174 Y97.682 E44.88503
G1 X57.585 Y97.111 E44.90843
G1 X58.016 Y96.633 E44.92984
G1 X58.133 Y96.516 E44.93534
G1 X58.658 Y96.047 E44.95876
G1 X59.233 Y95.641 E44.98217
G0 F6000 X59.483 Y95.957
G1 F900 X60.083 Y95.635 E45.00482
G1 X60.717 Y95.386 E45.02747
G1 X61.376 Y95.213 E45.05013
G1 X62.05 Y95.119 E45.07277
G1 X62.517 Y95.1 E45.08831
G1 X157.483 Y95.1 E48.24689
G1 X158.163 Y95.14 E48.26955
G1 X158.833 Y95.259 E48.29218
G1 X159.485 Y95.456 E48.31484
G1 X160.109 Y95.728 E48.33748
G1 X160.697 Y96.072 E48.36014
G1 X161.241 Y96.482 E48.38279
G1 X161.584 Y96.799 E48.39833
G1 X161.701 Y96.916 E48.40383
G1 X162.154 Y97.425 E48.42649
G1 X162.543 Y97.983 E48.44912
G1 X162.865 Y98.583 E48.47176
G1 X163.114 Y99.217 E48.49442
G1 X163.287 Y99.876 E48.51708
G1 X163.381 Y100.55 E48.53972
G1 X163.4 Y101.017 E48.55526
G1 X163.4 Y118.983 E49.15281
G1 X163.36 Y119.663 E49.17547
G1 X163.241 Y120.333 E49.1981
G1 X163.044 Y120.985 E49.22076
G1 X162.772 Y121.609 E49.2434
G1 X162.428 Y122.197 E49.26605
G1 X162.018 Y122.741 E49.28871
G1 X161.701 Y123.084 E49.30424
G1 X161.584 Y123.201 E49.30975
G1 X161.075 Y123.654 E49.33241
G1 X160.517 Y124.043 E49.35503
G1 X159.917 Y124.365 E49.37768
G1 X159.283 Y124.614 E49.40034
G1 X158.624 Y124.787 E49.423
G1 X157.95 Y124.881 E49.44563
G1 X157.483 Y124.9 E49.46118
G1 X62.517 Y124.9 E52.61976
G1 X61.837 Y124.86 E52.64242
G1 X61.167 Y124.741 E52.66505
G1 X60.515 Y124.544 E52.6877
G1 X59.891 Y124.272 E52.71034
G1 X59.303 Y123.928 E52.733
G1 X58.759 Y123.518 E52.75566
G1 X58.416 Y123.201 E52.77119
G1 X58.299 Y123.084 E52.7767
G1 X57.846 Y122.575 E52.79936
G1 X57.457 Y122.017 E52.82198
G1 X57.135 Y121.417 E52.84463
G1 X56.886 Y120.783 E52.86729
G1 X56.713 Y120.124 E52.88995
G1 X56.619 Y119.45 E52.91258
G1 X56.6 Y118.983 E52.92813
G1 X56.6 Y101.017 E53.52568
G1 X56.64 Y100.337 E53.54833
G1 X56.759 Y99.667 E53.57097
G1 X56.956 Y99.015 E53.59362
G1 X57.228 Y98.391 E53.61626
G1 X57.572 Y97.803 E53.63892
G1 X57.982 Y97.259 E53.66158
G1 X58.299 Y96.916 E53.67711
G1 X58.416 Y96.799 E53.68261
G1 X58.925 Y96.346 E53.70528
G1 X59.483 Y95.957 E53.7279
G0 F6000 X59.732 Y96.274
G1 F900 X60.314 Y95.97 E53.74974
G1 X60.929 Y95.739 E53.77159
G1 X61.568 Y95.584 E53.79346
G1 X62.517 Y95.5 E53.82515
G1 X157.483 Y95.5 E56.98373
G1 X158.139 Y95.54 E57.00559
G1 X158.785 Y95.659 E57.02744
G1 X159.412 Y95.856 E57.0493
G1 X160.01 Y96.128 E57.07115
G1 X160.571 Y96.47 E57.093
G1 X161.301 Y97.082 E57.12468
G1 X161.418 Y97.199 E57.13019
G1 X161.854 Y97.691 E57.15205
G1 X162.226 Y98.232 E57.17389
G1 X162.53 Y98.814 E57.19573
G1 X162.761 Y99.429 E57.21758
G1 X162.916 Y100.068 E57.23945
G1 X163 Y101.017 E57.27113
G1 X163 Y118.983 E57.86869
G1 X162.96 Y119.639 E57.89054
G1 X162.841 Y120.285 E57.91239
G1 X162.644 Y120.912 E57.93425
G1 X162.372 Y121.51 E57.9561
G1 X162.03 Y122.071 E57.97795
G1 X161.418 Y122.801 E58.00964
G1 X161.301 Y122.918 E58.01514
G1 X160.809 Y123.354 E58.03701
G1 X160.268 Y123.726 E58.05884
G1 X159.686 Y124.03 E58.08068
G1 X159.071 Y124.261 E58.10253
G1 X158.432 Y124.416 E58.1244
G1 X157.483 Y124.5 E58.15609
G1 X62.517 Y124.5 E61.31467
G1 X61.861 Y124.46 E61.33653
G1 X61.215 Y124.341 E61.35838
G1 X60.588 Y124.144 E61.38024
G1 X59.99 Y123.872 E61.40209
G1 X59.429 Y123.53 E61.42394
G1 X58.699 Y122.918 E61.45562
G1 X58.582 Y122.801 E61.46113
G1 X58.146 Y122.309 E61.48299
G1 X57.774 Y121.768 E61.50483
G1 X57.47 Y121.186 E61.52667
G1 X57.239 Y120.571 E61.54852
G1 X57.084 Y119.932 E61.57039
G1 X57 Y118.983 E61.60208
G1 X57 Y101.017 E62.19963
G1 X57.04 Y100.361 E62.22149
G1 X57.159 Y99.715 E62.24333
G1 X57.356 Y99.088 E62.26519
G1 X57.628 Y98.49 E62.28704
G1 X57.97 Y97.929 E62.3089
G1 X58.582 Y97.199 E62.34058
G1 X58.699 Y97.082 E62.34608
G1 X59.191 Y96.646 E62.36795
G1 X59.732 Y96.274 E62.38978
G0 F6000 X59.979 Y96.592
G1 F900 X60.543 Y96.306 E62.41082
G1 X61.138 Y96.094 E62.43183
G1 X61.756 Y95.958 E62.45287
G1 X62.517 Y95.9 E62.47826
G1 X157.483 Y95.9 E65.63684
G1 X158.114 Y95.94 E65.65787
G1 X158.735 Y96.059 E65.6789
G1 X159.335 Y96.256 E65.6999
G1 X159.907 Y96.527 E65.72095
G1 X160.439 Y96.867 E65.74195
G1 X161.019 Y97.364 E65.76736
G1 X161.136 Y97.481 E65.77286
G1 X161.553 Y97.956 E65.79388
G1 X161.908 Y98.479 E65.81491
G1 X162.194 Y99.043 E65.83594
G1 X162.406 Y99.638 E65.85695
G1 X162.542 Y100.256 E65.878
G1 X162.6 Y101.017 E65.90338
G1 X162.6 Y118.983 E66.50093
G1 X162.56 Y119.614 E66.52196
G1 X162.441 Y120.235 E66.54299
G1 X162.244 Y120.835 E66.564
G1 X161.973 Y121.407 E66.58505
G1 X161.633 Y121.939 E66.60605
G1 X161.136 Y122.519 E66.63145
G1 X161.019 Y122.636 E66.63696
G1 X160.544 Y123.053 E66.65798
G1 X160.021 Y123.408 E66.679
G1 X159.457 Y123.694 E66.70003
G1 X158.862 Y123.906 E66.72104
G1 X158.244 Y124.042 E66.74209
G1 X157.483 Y124.1 E66.76747
G1 X62.517 Y124.1 E69.92606
G1 X61.886 Y124.06 E69.94709
G1 X61.265 Y123.941 E69.96812
G1 X60.665 Y123.744 E69.98912
G1 X60.093 Y123.473 E70.01017
G1 X59.561 Y123.133 E70.03117
G1 X58.981 Y122.636 E70.05658
G1 X58.864 Y122.519 E70.06208
G1 X58.447 Y122.044 E70.0831
G1 X58.092 Y121.521 E70.10413
G1 X57.806 Y120.957 E70.12516
G1 X57.594 Y120.362 E70.14617
G1 X57.458 Y119.744 E70.16721
G1 X57.4 Y118.983 E70.1926
G1 X57.4 Y101.017 E70.79015
G1 X57.44 Y100.386 E70.81118
G1 X57.559 Y99.765 E70.83221
G1 X57.756 Y99.165 E70.85321
G1 X58.027 Y98.593 E70.87427
G1 X58.367 Y98.061 E70.89526
G1 X58.864 Y97.481 E70.92067
